src/assets/svg/x.svg

<svg width="35px" height="48px" viewBox="0 0 35 32" role="img" aria-label="Logotipo de X"> <g> <path style=" stroke:none;fill-rule:nonzero;fill:currentColor;fill-opacity:1;" d="M 27.535156 0 L 32.898438 0 L 21.117188 13.578125 L 34.882812 32 L 24.078125 32 L 15.621094 20.804688 L 5.9375 32 L 0.570312 32 L 13.054688 17.476562 L -0.128906 0 L 10.941406 0 L 18.585938 10.226562 Z M 25.65625 28.8125 L 28.628906 28.8125 L 9.378906 3.070312 L 6.183594 3.070312 Z M 25.65625 28.8125 "></path> </g> </svg>

<svg width="35" height="48" aria-label="Logotipo de X" viewBox="0 0 35 32"><path d="M27.535 0h5.363l-11.78 13.578L34.882 32H24.078l-8.457-11.195L5.938 32H.57l12.485-14.523L-.13 0h11.07l7.645 10.227Zm-1.879 28.813h2.973L9.379 3.07H6.184Zm0 0" style="stroke:none;fill-rule:nonzero;fill:currentColor;fill-opacity:1"/></svg>
